X:1
T:Title
%%score { 1 | 2 }
L:1/8
M:4/4
K:G
V:1 treble nm="Grand Piano"
V:2 treble 
V:1
 z4 z2[Q:1/4=100] GA | BBBB cBAG |[M:3/4] [EA]E EE E2 |[M:1/4] FG |[M:4/4] AAAA BAFD | %5
[M:3/4] [DB]6 |[M:1/4] GA |[M:4/4] BBBB cBAG |[M:3/4] [EA]E EE E2 |[M:1/4] FG |[M:4/4] AAAA BAFD | %11
[M:3/4] [B,G]6 |[M:1/4] GA |[M:4/4] BBBB cBAG | [EA]E (3EEE E2 FG | AAAA A[DA][GB][Fc] | d6 Bc | %17
 dddB GG[EA][EB] |[M:9/8] [Ec][EB][A,CE] [CE] [CEA]2- [CEA][CDF][CEG] | %19
[M:4/4] [CFA][CFA][CFA][CFA] [DGB][CFA][CDF][CD] |[M:3/4] [B,DG]6 |] %21
V:2
 z4 z2 [G,B,D][G,B,D] | [G,DG][G,DG][G,DG][G,DG] [G,EG][G,DG][K:bass][G,CD][G,B,D] | %2
[M:3/4] [C,C][C,G,C] [C,G,C][C,G,C] [C,G,C]2 |[M:1/4] [D,C][D,G,B,] | %4
[M:4/4] [D,F,D][D,F,D][D,F,D][D,F,D] [D,G,D][D,F,D][D,A,D][D,F,] |[M:3/4] [G,,G,]6 | %6
[M:1/4][K:treble] [G,B,D][G,B,D] | %7
[M:4/4] [G,DG][G,DG][G,DG][G,DG] [G,EG][G,DG][K:bass][G,CD][G,B,D] | %8
[M:3/4] [C,C][C,G,C] [C,G,C][C,G,C] [C,G,C]2 |[M:1/4] [D,C][D,G,B,] | %10
[M:4/4] [D,F,D][D,F,D][D,F,D][D,F,D] [D,G,D][D,F,D][D,A,D][D,F,] |[M:3/4] [G,,G,]6 | %12
[M:1/4][K:treble] [G,B,D][G,CD] | %13
[M:4/4] [G,DG][G,DG][G,DG][G,DG] [G,EG][G,DG][K:bass][G,CD][G,B,D] | %14
 [C,C][C,G,C] (3[C,G,C][C,G,C][C,G,C] [C,G,C]2 [D,C][D,G,B,] | %15
 [D,F,D][D,F,D][D,F,D][D,F,D] [D,F,D][C,F,][B,,G,][A,,A,] | [G,,B,D]6[K:treble] [G,D][G,A,D] | %17
 [G,B,G][G,B,G][G,B,G][G,DG][K:bass] [G,B,D][G,B,D][C,C][B,,^G,] | %18
[M:9/8] [A,,A,][B,,^G,]C, C, C,2- C,D,D, |[M:4/4] D,D,D,D, D,D,D,D, |[M:3/4] G,,6 |] %21

